places/24/folder-windows.svg

<?xml version="1.0" encoding="UTF-8" standalone="no"?>
<!-- Created with Inkscape (http://www.inkscape.org/) -->

<svg
   xmlns:dc="http://purl.org/dc/elements/1.1/"
   xmlns:cc="http://creativecommons.org/ns#"
   xmlns:rdf="http://www.w3.org/1999/02/22-rdf-syntax-ns#"
   xmlns:svg="http://www.w3.org/2000/svg"
   xmlns="http://www.w3.org/2000/svg"
   xmlns:sodipodi="http://sodipodi.sourceforge.net/DTD/sodipodi-0.dtd"
   xmlns:inkscape="http://www.inkscape.org/namespaces/inkscape"
   id="svg13094"
   height="24"
   width="24"
   version="1.1"
   inkscape:version="0.48.3.1 r9886"
   sodipodi:docname="folder-windows.svg">
  <defs
     id="defs2989" />
  <sodipodi:namedview
     pagecolor="#ffffff"
     bordercolor="#666666"
     borderopacity="1"
     objecttolerance="10"
     gridtolerance="10"
     guidetolerance="10"
     inkscape:pageopacity="0"
     inkscape:pageshadow="2"
     inkscape:window-width="1920"
     inkscape:window-height="1023"
     id="namedview2987"
     showgrid="true"
     inkscape:zoom="29.5"
     inkscape:cx="15.07372"
     inkscape:cy="11.80969"
     inkscape:window-x="-10"
     inkscape:window-y="35"
     inkscape:window-maximized="1"
     inkscape:current-layer="svg13094"
     inkscape:snap-bbox="true"
     inkscape:bbox-paths="true"
     inkscape:bbox-nodes="true"
     inkscape:snap-bbox-edge-midpoints="true"
     inkscape:snap-bbox-midpoints="true"
     inkscape:object-paths="true"
     inkscape:snap-intersection-paths="true"
     inkscape:object-nodes="true"
     inkscape:snap-smooth-nodes="true"
     inkscape:snap-midpoints="true"
     inkscape:snap-object-midpoints="true"
     inkscape:snap-center="true">
    <inkscape:grid
       type="xygrid"
       id="grid3750"
       empspacing="5"
       visible="true"
       enabled="true"
       snapvisiblegridlinesonly="true" />
  </sodipodi:namedview>
  <metadata
     id="metadata13099">
    <rdf:RDF>
      <cc:Work
         rdf:about="">
        <dc:format>image/svg+xml</dc:format>
        <dc:type
           rdf:resource="http://purl.org/dc/dcmitype/StillImage" />
        <dc:title />
      </cc:Work>
    </rdf:RDF>
  </metadata>
  <path
     id="path3020"
     d="m 19,3 -7,1.5 0,6.5 7,0 0,-8 z M 11,4.71875 5,6 l 0,5 6,0 0,-6.28125 z M 5,12 5,17 11,18.71875 11,12 5,12 z m 7,0 0,7 7,2 0,-9 -7,0 z"
     style="color:#000000;fill:#27303a;fill-opacity:0.753280819999999968;fill-rule:nonzero;stroke:none;stroke-width:2;marker:none;visibility:visible;display:inline;overflow:visible;enable-background:accumulate"
     inkscape:connector-curvature="0" />
  <path
     style="font-size:medium;font-style:normal;font-variant:normal;font-weight:normal;font-stretch:normal;text-indent:0;text-align:start;text-decoration:none;line-height:normal;letter-spacing:normal;word-spacing:normal;text-transform:none;direction:ltr;block-progression:tb;writing-mode:lr-tb;text-anchor:start;baseline-shift:baseline;color:#000000;fill:#f1f3f5;fill-opacity:0.90288714000000003;fill-rule:nonzero;stroke:none;stroke-width:2;marker:none;visibility:visible;display:inline;overflow:visible;enable-background:accumulate;font-family:Sans;-inkscape-font-specification:Sans"
     d="M 20 1.53125 L 18.75 1.8125 L 11.75 3.3125 L 11.125 3.46875 L 10.8125 3.53125 L 10.75 3.53125 L 4.75 4.8125 L 4 5 L 4 17.96875 L 4.65625 18.15625 L 10.65625 19.875 L 10.8125 19.90625 L 11.65625 20.15625 L 12.1875 20.3125 L 18.65625 22.15625 L 20 22.53125 L 20 1.53125 z M 19 3 L 19 11 L 12 11 L 12 4.5 L 19 3 z M 11 4.71875 L 11 11 L 5 11 L 5 6 L 11 4.71875 z M 5 12 L 11 12 L 11 18.71875 L 5 17 L 5 12 z M 12 12 L 19 12 L 19 21 L 12 19 L 12 12 z "
     id="path2984" />
</svg>

<?xml version="1.0" encoding="UTF-8"?>
<svg id="a" width="24" height="24" version="1.1" xmlns="http://www.w3.org/2000/svg" xmlns:cc="http://creativecommons.org/ns#" xmlns:dc="http://purl.org/dc/elements/1.1/" xmlns:rdf="http://www.w3.org/1999/02/22-rdf-syntax-ns#">
	<metadata id="d">
		<rdf:RDF>
			<cc:Work rdf:about="">
				<dc:format>image/svg+xml</dc:format>
				<dc:type rdf:resource="http://purl.org/dc/dcmitype/StillImage"/>
				<dc:title/>
			</cc:Work>
		</rdf:RDF>
	</metadata>
	<defs>
		<style id="current-color-scheme" type="text/css">.ColorScheme-Text {color:#090d11;}.ColorScheme-Background{color:#ffffff;}</style>
	</defs>
	<path id="b" d="m19 3-7 1.5v6.5h7v-8zm-8 1.7188-6 1.2812v5h6v-6.2812zm-6 7.2812v5l6 1.7188v-6.7188h-6zm7 0v7l7 2v-9h-7z" style="fill:currentColor;fill-opacity:0.75;" class="ColorScheme-Text"/>
	<path id="c" d="m20 1.5312-1.25 0.28125-7 1.5-0.625 0.15625-0.3125 0.0625h-0.0625l-6 1.2812-0.75 0.1875v12.969l0.65625 0.1875 6 1.7188 0.15625 0.03125 0.84375 0.25 0.53125 0.15625 6.4688 1.8438 1.3438 0.375v-21zm-1 1.4688v8h-7v-6.5l7-1.5zm-8 1.7188v6.2812h-6v-5l6-1.2812zm-6 7.2812h6v6.7188l-6-1.7188v-5zm7 0h7v9l-7-2v-7z" style="fill:currentColor;fill-opacity:0.5;" class="ColorScheme-Background"/>
</svg>
